X:1
T:Morrison's Jig
C:Traditional Irish Jig
L:1/8
M:6/8
I:linebreak $
K:D
V:1
|:"Em" E2 E BEB | EBE"D" AFD |"Em" E2 E B2 c |"G" dcB "D" AFD |$ 
"Em" E2 E BEB | EBE "D"AFD |"G" G2 G FGA |"D" dAG FED :|$
"Em" Bee fee | aee "D" fed |"Em"  Bee fee |"D" fag fed |$ 
"Em"Bee fee | aee "D"fed |"G" gfe d2 A | "D"BAG FED |$
"Em" Bee fee | aee "D"fed |"Em"  Bee fee |"D" faf def |$ | 
"G"g3  gfe |"D" def "G"g2 d |"D" edc d2 A |"Bm" BAG  "_End on Em"FED ||
